!!!!SEGMENT: pl-stab--6a--001-005_dankowski-adalbert--vespera-de-confes-ex-c-laudate-pueri.krn
!!!cenid: 18xx:3465
!!!COM: Dankowski, Adalbert
!!!COM-rismID: pe30000793
!!!CDT: ~1760-~1836
!!!CNT: Polish
!!!OPR: Vespera de Confes ex C
!!!OTL: Laudate pueri
!!!OMV: 005
!!!PDT:
!!!AGN: Sacred; Vespers
!!!SMS-siglum: PL-STAb
!!!SMS-shelfmark: 6a
!!!SMS-shelfwork: 001-005 M
!!!SMS-variant:
!!!SMS-altvar:
!!!NIFC-rismSourceID: 301050559
!!!NIFC-islandoraID: pl-stab:1600
!!!URL-pdf-islandora: https://repozytorium.nifc.pl/islandora/object/pl-stab%3A1600/datastream/PDF/view
!!!URL-scan: https://polish.musicsources.pl/pl/lokalizacje/galeria/rekopisy/4540 @EN{Scan on Polish Music Sources Website} @PL{Skany w portalu Dziedzictwo Muzyki Polskiej w otwartym dostępie}
!!!ONB-nifc: UWAGA: części Vesperae: 1. Domine ad adjuvandum, 2. Dixit Dominus, 3. Confitebor, 4. Beatus vir, 5. Laudate pueri, 6. Laudate Dominus, 7. Magnificat
!!!AIN: 1 alto 1 bass 2 clars 1 organ 1 soprn 1 tenor 2 violn
!!!key: a
**kern	**fba	**kern	**dynam	**kern	**dynam	**kern	**text	**kern	**text	**kern	**text	**kern	**text	**dynam	**kern	**kern
*	*	*group3	*	*group3	*	*group2	*	*group2	*	*group2	*	*group2	*	*	*group1	*group1
*part9	*part9	*part8	*part8	*part7	*part7	*part6	*part6	*part5	*part5	*part4	*part4	*part3	*part3	*part3	*part2	*part1
*staff9	*	*staff8	*	*staff7	*	*staff6	*staff6	*staff5	*staff5	*staff4	*staff4	*staff3	*staff3	*	*staff2	*staff1
*I"Organo	*	*I"Violino Secundo	*	*I"Violino Primo	*	*I"Baſso	*	*I"Tenore	*	*I"Alto	*	*I"Canto	*	*	*I"Clarino Secundo in C	*I"Clarino Primo in C
*	*	*mI"Violino II	*	*mI"Violino I	*	*mI"Basso	*	*mI"Tenore	*	*mI"Alto	*	*mI"Soprano	*	*	*mI"Clarino II in C	*mI"Clarino I in C
*I'org	*	*I'vl 2	*	*I'vl 1	*	*I'B	*	*I'T	*	*I'A	*	*I'S	*	*	*I'clno 2 in C	*I'clno 1 in C
*Iorgan	*	*Ivioln	*	*Ivioln	*	*Ibass	*	*Itenor	*	*Ialto	*	*Isoprn	*	*	*Iclars	*Iclars
*ICklav	*	*ICstr	*	*ICstr	*	*ICvox	*	*ICvox	*	*ICvox	*	*ICvox	*	*	*ICww	*ICww
*IGcont	*	*IGacmp	*	*IGacmp	*	*IGcoro	*	*IGcoro	*	*IGcoro	*	*IGcoro	*	*	*IGacmp	*IGacmp
*clefF4	*	*clefG2	*	*clefG2	*	*clefF4	*	*clefC4	*	*clefC3	*	*clefC1	*	*	*clefG2	*clefG2
*	*	*	*	*	*	*	*	*mclefGv2	*	*mclefG2	*	*mclefG2	*	*	*	*
*k[]	*	*k[]	*	*k[]	*	*k[]	*	*k[]	*	*k[]	*	*k[]	*	*	*k[]	*k[]
*a:	*	*a:	*	*a:	*	*a:	*	*a:	*	*a:	*	*a:	*	*	*a:	*a:
*M4/4	*	*M4/4	*	*M4/4	*	*M4/4	*	*M4/4	*	*M4/4	*	*M4/4	*	*	*M4/4	*M4/4
*met(c)	*	*met(c)	*	*met(c)	*	*met(c)	*	*met(c)	*	*met(c)	*	*met(c)	*	*	*met(c)	*met(c)
!	!	!	!	!	!	!LO:MO:null:mod=!LO&colon;TX&colon;a&colon;i&colon;t=Solo	!	!	!	!	!	!	!	!	!	!
!LO:MO:mod=!LO&colon;TX&colon;a&colon;i&colon;t=Moderato	!	!LO:MO:mod=!LO&colon;TX&colon;a&colon;i&colon;t=Moderato	!	!LO:MO:null:mod=!LO&colon;TX&colon;a&colon;i&colon;t=Moderato	!	!	!	!	!	!	!	!	!	!	!	!
!LO:TX:a:i:rj:t=Moderato	!	!LO:TX:a:i:rj:t=Moderato	!	!	!	!LO:TX:a:i:t=Moderatto	!	!LO:TX:a:i:t=Moderato	!	!LO:TX:a:i:t=Moderato	!	!LO:TX:a:i:t=Moderato	!	!	!LO:TX:a:i:t=Laudate Pueri Tacet	!LO:TX:a:i:t=Laudate Pueri Tacet
8r	.	8r	.	8b/	.	8E\	Lau-	8r	.	8r	.	8r	.	.	8ryy	8ryy
=1	=1	=1	=1	=1	=1	=1	=1	=1	=1	=1	=1	=1	=1	=1	=1	=1
!LO:TX:a:i:t=Solo	!	!	!LO:DY:t=p.	!	!LO:DY:t=p.	!	!	!	!	!	!	!	!	!	!	!
8A\L	.	16c/LL	p	8.cc\L	p	8AA/	-da-	00r	.	1r	.	1r	.	.	1ryy	1ryy
.	.	16e/	.	.	.	.	.	.	.	.	.	.	.	.	.	.
!	!	!	!	!	!	!LO:TX:a:i:t=Solo:mod=	!	!	!	!	!	!	!	!	!	!
8A\	.	16c/	.	.	.	16A\	-te	.	.	.	.	.	.	.	.	.
.	.	16e/JJ	.	16ee\Jk	.	16c\	pu-	.	.	.	.	.	.	.	.	.
8E\	#	16B/LL	.	16ee\LL	.	16c\LL	-e-	.	.	.	.	.	.	.	.	.
.	.	16d/	.	16dd\	.	16B\JJ	.	.	.	.	.	.	.	.	.	.
8E\J	.	16B/	.	16cc\	.	16A\LL	-ri	.	.	.	.	.	.	.	.	.
.	.	16d/JJ	.	16b\JJ	.	16G#X\JJ	.	.	.	.	.	.	.	.	.	.
!LO:TX:t=P:problem=mixed beam	!	!	!	!	!	!	!	!	!	!	!	!	!	!	!	!
8A\L	.	16c/LL	.	8.cc\L	.	8.A\	Do-	.	.	.	.	.	.	.	.	.
.	.	16e/	.	.	.	.	.	.	.	.	.	.	.	.	.	.
8A\	.	16c/	.	.	.	.	.	.	.	.	.	.	.	.	.	.
.	.	16e/JJ	.	16dd\	.	16B\	-mi-	.	.	.	.	.	.	.	.	.
8AA/	.	16c/LL	.	8ee\	.	8c\	-num	.	.	.	.	.	.	.	.	.
.	.	16e/	.	.	.	.	.	.	.	.	.	.	.	.	.	.
8AA/J	.	16c/	.	8cc\J	.	8A\	lau-	.	.	.	.	.	.	.	.	.
.	.	16e/JJ	.	.	.	.	.	.	.	.	.	.	.	.	.	.
=2	=2	=2	=2	=2	=2	=2	=2	=2	=2	=2	=2	=2	=2	=2	=2	=2
8D\L	6	16d/LL	.	8dd\L	.	8B\	-da-	.	.	2r	.	2r	.	.	1ryy	1ryy
.	.	16f/	.	.	.	.	.	.	.	.	.	.	.	.	.	.
8D\	.	16d/	.	8dd\J	.	8B\	-te	.	.	.	.	.	.	.	.	.
.	.	16f/JJ	.	.	.	.	.	.	.	.	.	.	.	.	.	.
8E\	#	16B/LL	.	8b\L	.	8G#X\	No-	.	.	.	.	.	.	.	.	.
.	.	16d/	.	.	.	.	.	.	.	.	.	.	.	.	.	.
8E\J	.	16B/	.	16a\L	.	16F\LL	-men	.	.	.	.	.	.	.	.	.
.	.	16d/JJ	.	16b\JJ	.	16G#\JJ	.	.	.	.	.	.	.	.	.	.
!LO:TX:t=P:problem=mixed beam	!	!	!	!	!	!LO:LB:g=original	!	!	!	!	!	!LO:TX:a:i:t=Solo:mod=	!	!	!	!
8AA/L	.	16c/LL	.	4cc\	.	8.A\	Do-	.	.	4r	.	4r	.	.	.	.
.	.	16e/	.	.	.	.	.	.	.	.	.	.	.	.	.	.
8A\	.	16c/	.	.	.	.	.	.	.	.	.	.	.	.	.	.
.	.	16e/JJ	.	.	.	16A\	-mi-	.	.	.	.	.	.	.	.	.
!	!	!LO:TX:t=P:problem=mixed beam	!	!	!	!	!	!	!	!	!	!	!	!	!	!
8AA/J	.	8c/L	.	8r	.	8A\	-ni	.	.	8r	.	8r	.	.	.	.
!	!	!	!	!	!	!	!	!	!	!	!	!LO:MO:null:mod=!LO&colon;TX&colon;a&colon;i&colon;t=Solo	!	!	!	!
!	!	!	!	!	!	!	!	!	!	!LO:TX:a:i:t=Solo	!	!	!	!	!	!
8r	.	8cc\J	.	8ee\	.	8r	.	.	.	8cc\	Sit	8ee\	Sit	.	.	.
!	!	!LO:LB:g=original	!	!	!	!	!	!	!	!	!	!	!	!	!	!
=3	=3	=3	=3	=3	=3	=3	=3	=3	=3	=3	=3	=3	=3	=3	=3	=3
4.A\	.	16a/LL	.	16cc\LL	.	0r	.	.	.	16a\LL	No-	16cc\LL	no-	.	1ryy	1ryy
.	.	16g#X/	.	16b\	.	.	.	.	.	16g#X\JJ	.	16b\JJ	.	.	.	.
.	.	16a/	.	16cc\	.	.	.	.	.	16a\LL	-men	16cc\LL	-men	.	.	.
.	.	16b/JJ	.	16dd\JJ	.	.	.	.	.	16b\JJ	.	16dd\JJ	.	.	.	.
.	.	8cc\L	.	8ee\L	.	.	.	.	.	8cc\	Do-	8ee\	Do-	.	.	.
8G#X\	7 5	8dd\J	.	8ff\J	.	.	.	.	.	8dd\	-mi-	8ff\	-mi-	.	.	.
!	!	!	!	!LO:LB:g=original	!	!	!	!	!	!	!	!	!	!	!	!
4.A\	.	8cc\L	.	8ee\L	.	.	.	.	.	8cc\	-ni	8ee\	-ni	.	.	.
.	.	16a\L	.	16cc\L	.	.	.	.	.	16a\	Be-	16cc\	Be-	.	.	.
.	.	16b\JJ	.	16dd\JJ	.	.	.	.	.	16b\	-ne	16dd\	-ne	.	.	.
.	.	8cc\L	.	8ee\L	.	.	.	.	.	8cc\L	dic-	8ee\L	dic-	.	.	.
8G#\	7 5	8dd\J	.	8ff\J	.	.	.	.	.	8dd\J	.	8ff\J	.	.	.	.
!	!	!	!	!	!	!	!	!	!	!LO:LB:g=original	!	!LO:LB:g=original	!	!	!	!
=4	=4	=4	=4	=4	=4	=4	=4	=4	=4	=4	=4	=4	=4	=4	=4	=4
!LO:TX:t=P:problem=mixed beam	!	!	!	!	!	!	!	!	!	!	!	!	!	!	!	!
8A\L	.	4.cc\	.	4.ee\	.	.	.	.	.	8cc\	-tum	8ee\	-tum	.	1ryy	1ryy
8A\	.	.	.	.	.	.	.	.	.	4cc\	ex	4ee\	ex	.	.	.
8AA/	.	.	.	.	.	.	.	.	.	.	.	.	.	.	.	.
8AA/J	.	16b\LL	.	16dd\LL	.	.	.	.	.	16b\LL	hoc	16dd\LL	hoc	.	.	.
.	.	16a\JJ	.	16cc\JJ	.	.	.	.	.	16a\JJ	.	16cc\JJ	.	.	.	.
4.E\	x #	8g#X/L	.	8b\L	.	.	.	.	.	8g#X\	nunc	8b\	nunc	.	.	.
!	!	!	!	!	!	!	!	!	!	!LO:SIC:	!	!	!	!	!	!
.	.	16f/L	.	16a\L	.	.	.	.	.	16f\LL	et	16a\LL	et	.	.	.
.	.	16g#/JJ	.	16b\JJ	.	.	.	.	.	16g#\JJ	.	16b\JJ	.	.	.	.
.	6 4	[4a/	.	[<4cc\	.	.	.	.	.	4a\	us-	4cc\	us-	.	.	.
8EE/	.	.	.	.	.	.	.	.	.	.	.	.	.	.	.	.
=5	=5	=5	=5	=5	=5	=5	=5	=5	=5	=5	=5	=5	=5	=5	=5	=5
4AA/	3	8a/L]	.	8cc\L]	.	1r	.	00r	.	8a\	-que	8cc\	-que	.	1ryy	1ryy
.	.	16b/L	.	16dd\L	.	.	.	.	.	16b\LL	in	16dd\LL	in	.	.	.
.	.	16a/JJ	.	16cc\JJ	.	.	.	.	.	16a\JJ	.	16cc\JJ	.	.	.	.
8D\L	6 5	8a/L	.	4b\	.	.	.	.	.	8a\	Sae-	8b\	Se-	.	.	.
8E\J	#	8g#X/J	.	.	.	.	.	.	.	8g#X\	-cu-	8b\	-cu-	.	.	.
!LO:TX:t=P:problem=mixed beam	!	!	!	!	!	!	!	!	!	!	!	!	!	!	!	!
8A\L	.	8a/L	.	8cc\L	.	.	.	.	.	8a\	-lum	8cc\	-lum	.	.	.
8AA/J	.	8a/J	.	8cc\J	.	.	.	.	.	8a\	a	8cc\	a	.	.	.
4r	.	16a/LL	.	16cc\LL	.	.	.	.	.	16a\LL	so-	16cc\LL	so-	.	.	.
.	.	16g#/	.	16b\	.	.	.	.	.	16g#\JJ	.	16b\JJ	.	.	.	.
.	.	16a/	.	16cc\	.	.	.	.	.	16a\LL	-lis	16cc\LL	-lis	.	.	.
.	.	16b/JJ	.	16dd\JJ	.	.	.	.	.	16b\JJ	.	16dd\JJ	.	.	.	.
!LO:LB:g=original	!	!	!	!	!	!	!	!	!	!LO:LB:g=original	!	!	!	!	!	!
=6	=6	=6	=6	=6	=6	=6	=6	=6	=6	=6	=6	=6	=6	=6	=6	=6
16AA/LL	.	(4cc\	.	(4ee\	.	16AA/LL	Lau-	.	.	4cc\	or-	4ee\	or-	.	1ryy	1ryy
16BB/	.	.	.	.	.	16BB/	.	.	.	.	.	.	.	.	.	.
16C/	.	.	.	.	.	16C/	.	.	.	.	.	.	.	.	.	.
16D/JJ	.	.	.	.	.	16D/JJ	.	.	.	.	.	.	.	.	.	.
16E\LL	.	8a\)	.	8cc\)	.	16E\LL	.	.	.	8a\	-tu	8cc\	-tu	.	.	.
16F\	.	.	.	.	.	16F\	.	.	.	.	.	.	.	.	.	.
16G#X\	.	8r	.	8r	.	16G#X\	.	.	.	8r	.	8r	.	.	.	.
16A\JJ	.	.	.	.	.	16A\JJ	.	.	.	.	.	.	.	.	.	.
!	!	!	!	!	!	!	!	!	!	!	!	!LO:LB:g=original	!	!	!	!
8E\L	#	8g#X/L	.	8b\L	.	8E\	-da-	.	.	8g#X\	us-	8b\	us-	.	.	.
8E\J	.	8g#/J	.	8b\J	.	8E\	-te	.	.	8g#\	-que	8b\	-que	.	.	.
4r	.	16g#/LL	.	16b\LL	.	4r	.	.	.	16g#\LL	ad	16b\LL	ad	.	.	.
.	.	16f/	.	16a\	.	.	.	.	.	16f\JJ	.	16a\JJ	.	.	.	.
.	.	16g#/	.	16b\	.	.	.	.	.	16g#\LL	o-	16b\LL	o-	.	.	.
.	.	16a/JJ	.	16cc\JJ	.	.	.	.	.	16a\JJ	.	16cc\JJ	.	.	.	.
!	!	!LO:LB:g=original	!	!LO:LB:g=original	!	!	!	!	!	!	!	!	!	!	!	!
=7	=7	=7	=7	=7	=7	=7	=7	=7	=7	=7	=7	=7	=7	=7	=7	=7
!	!	!	!	!	!	!	!	!	!	!	!	!	!LO:MO:mod=-ca-	!	!	!
16e\LL	#	(4b/	.	(4dd\	.	16e\LL	Lau-	.	.	4b\	-ca-	4dd\	-Ca-	.	1ryy	1ryy
16d\	.	.	.	.	.	16d\	.	.	.	.	.	.	.	.	.	.
16c\	.	.	.	.	.	16c\	.	.	.	.	.	.	.	.	.	.
16B\JJ	.	.	.	.	.	16B\JJ	.	.	.	.	.	.	.	.	.	.
16A\LL	.	8g#X/)	.	8b\)	.	16A\LL	.	.	.	8g#X\	-ſum	8b\	-sum	.	.	.
16G#X\	.	.	.	.	.	16G#X\	.	.	.	.	.	.	.	.	.	.
16F\	.	8r	.	8r	.	16F\	.	.	.	8r	.	8r	.	.	.	.
16E\JJ	.	.	.	.	.	16E\JJ	.	.	.	.	.	.	.	.	.	.
!LO:TX:t=P:problem=mixed beam	!	!	!	!	!	!LO:LB:g=original	!	!	!	!	!	!	!	!	!	!
8A\L	.	8r	.	8r	.	8A\	-da-	.	.	8r	.	8r	.	.	.	.
!	!	!	!	!	!	!	!	!	!	!	!	!	!LO:MO:mod=Lau-	!	!	!
8AA/J	.	8a/	.	8cc\	.	8A\	-te	.	.	8a\	Lau-	8cc\	lau-	.	.	.
8r	.	16g#/LL	.	16b\LL	.	4r	.	.	.	16g#\LL	-da-	16b\LL	-da-	.	.	.
.	.	16a/	.	16cc\	.	.	.	.	.	16a\	.	16cc\	.	.	.	.
8A\	.	16b/	.	16dd\	.	.	.	.	.	16b\	.	16dd\	.	.	.	.
.	.	16cc/JJ	.	16ee\JJ	.	.	.	.	.	16cc\JJ	.	16ee\JJ	.	.	.	.
=8	=8	=8	=8	=8	=8	=8	=8	=8	=8	=8	=8	=8	=8	=8	=8	=8
*2\right	*	*	*	*	*	*	*	*	*	*	*	*	*	*	*	*
2G#X\	7	4dd\	.	4ff\	.	8r	.	.	.	4dd\	.	4ff\	.	.	1ryy	1ryy
.	.	.	.	.	.	8G#X\	Lau-	.	.	.	.	.	.	.	.	.
.	6	8cc\L	.	8ee\L	.	8G#\	-da-	.	.	8cc\	-bi-	8ee\	-bi-	.	.	.
.	5	8b\J	.	8dd\J	.	8G#\	-te	.	.	8b\	-le	8dd\	-le	.	.	.
!LO:TX:t=P:problem=mixed beam	!	!	!	!	!	!	!	!	!	!LO:LB:g=original	!	!	!	!	!	!
!	!	!	!	!	!	!	!	!	!	!	!LO:MO:mod=no-	!	!	!	!	!
8A\L	.	16a\LL	.	16cc\LL	.	8A\	No-	.	.	8a\	No-	8cc\	no-	.	.	.
.	.	16cc\	.	16ee\	.	.	.	.	.	.	.	.	.	.	.	.
8D\	6	16dd\	.	16ff\	.	8D\	-men	.	.	8b\	-men	8dd\	-men	.	.	.
.	.	16b\JJ	.	16dd\JJ	.	.	.	.	.	.	.	.	.	.	.	.
8E\	4	16b/LL	.	16dd\LL	.	8E\	Do-	.	.	8a\	Do-	8cc\	Do-	.	.	.
.	.	16a/	.	16cc\	.	.	.	.	.	.	.	.	.	.	.	.
8EE/J	#	16a/	.	16cc\	.	8E\	-mi-	.	.	8g#X\	-mi-	8b\	-mi-	.	.	.
.	.	16g#X/JJ	.	16b\JJ	.	.	.	.	.	.	.	.	.	.	.	.
!	!	!	!	!	!	!	!	!	!	!	!	!LO:LB:g=original	!	!	!	!
=9	=9	=9	=9	=9	=9	=9	=9	=9	=9	=9	=9	=9	=9	=9	=9	=9
!LO:TX:a:i:t=Tutti	!	!	!LO:DY:a:rj:t=f.	!	!LO:DY:a:rj:t=for	!	!	!	!	!	!	!	!	!	!	!
!LO:TX:t=P:problem=mixed beam	!	!	!	!	!	!	!	!	!	!	!	!	!	!	!	!
8AA/L	.	8a/L	f	8.cc\L	f	8AA/	-ni	8r	.	8a\	-ni	8cc\	-ni	.	1ryy	1ryy
8A\	.	16e/L	.	.	.	8A\	Ex-	8e\	Ex-	8a\	Ex-	8cc\	Ex-	.	.	.
.	.	16d/JJ	.	(32ee\LL	.	.	.	.	.	.	.	.	.	.	.	.
.	.	.	.	32dd\JJJ)	.	.	.	.	.	.	.	.	.	.	.	.
8Gn\	4 2	16c#X/LL	.	16cc#X\LL	.	8Gn\	-cel-	8e\	-cel-	8a\	-cel-	8cc#X\	-cel-	.	.	.
.	.	16A/	.	16a\	.	.	.	.	.	.	.	.	.	.	.	.
8G\J	#	16B/	.	16b\	.	8G\	-sus	8e\	-sus	8a\	-sus	8cc#\	-sus	.	.	.
.	.	16c#/JJ	.	16cc#\JJ	.	.	.	.	.	.	.	.	.	.	.	.
8F\L	6	16d/LL	.	16dd\LL	.	8F\	Su-	8d\	Su-	8a\	Su-	8dd\	Su-	.	.	.
.	.	16e/	.	16ee\	.	.	.	.	.	.	.	.	.	.	.	.
8F\	.	16f/	.	16ff\	.	8F\	-per	8d\	-per	8a\	-per	8dd\	-per	.	.	.
.	.	16d/JJ	.	16dd\JJ	.	.	.	.	.	.	.	.	.	.	.	.
!	!	!	!	!	!	!LO:LB:g=original	!	!	!	!	!	!	!	!	!	!
8F#X\	6 n5r	16a/LL	.	16aa\LL	.	8F#X\	O-	8d\	o-	8a\	o-	8ccn\	o-	.	.	.
.	.	16f#X/	.	16ff#X\	.	.	.	.	.	.	.	.	.	.	.	.
8F#\J	.	16d/	.	16dd\	.	8F#\	-mnes	8d\	-mnes	8a\	-mnes	8b\	-mnes	.	.	.
.	.	16cn/JJ	.	16ccn\JJ	.	.	.	.	.	.	.	.	.	.	.	.
!	!	!	!	!LO:LB:g=original	!	!	!	!	!	!	!	!	!	!	!	!
=10	=10	=10	=10	=10	=10	=10	=10	=10	=10	=10	=10	=10	=10	=10	=10	=10
8G\L	3	8.B/L	.	8.b\L	.	8G\	gen-	8d\	gen-	8gn\	gen-	8b\	gen-	.	1ryy	1ryy
8G\	.	.	.	.	.	8G\	-tes	8d\	-tes	8g\	-tes	8b\	-tes	.	.	.
.	.	32d/LL	.	32dd\LL	.	.	.	.	.	.	.	.	.	.	.	.
.	.	32c/JJJ	.	32cc\JJJ	.	.	.	.	.	.	.	.	.	.	.	.
!	!	!LO:LB:g=original	!	!	!	!	!	!	!	!	!	!	!	!	!	!
8Fn\	.	16B/LL	.	16b\LL	.	8Fn\	Do-	8d\	Do-	8g\	Do-	8b\	Do-	.	.	.
.	.	16G/	.	16g\	.	.	.	.	.	.	.	.	.	.	.	.
8F\J	.	16A/	.	16a\	.	8F\	-mi-	8d\	-mi-	8g\	-mi-	8b\	-mi-	.	.	.
.	.	16B/JJ	.	16b\JJ	.	.	.	.	.	.	.	.	.	.	.	.
!LO:LB:g=original	!	!	!	!	!	!	!	!	!	!LO:LB:g=original	!	!	!	!	!	!
8E\L	6	16c/LL	.	16cc\LL	.	8E\	-nus	8c\	-nus	8g\	-nus	8cc\	-nus	.	.	.
.	.	16d/	.	16dd\	.	.	.	.	.	.	.	.	.	.	.	.
8E\	.	16e/	.	16ee\	.	8E\	et	8c\	et	8g\	et	8cc\	et	.	.	.
.	.	16c/JJ	.	16cc\JJ	.	.	.	.	.	.	.	.	.	.	.	.
!	!	!	!	!	!	!	!	!LO:LB:g=original	!	!	!	!	!	!	!	!
8E\	6 -5r	16g/LL	.	16gg\LL	.	8E\	Su-	8c\	Su-	8g\	Su-	8cc\	Su-	.	.	.
.	.	16e/	.	16ee\	.	.	.	.	.	.	.	.	.	.	.	.
8E\J	.	16c/	.	16cc\	.	8E\	-per	8c\	-per	8g\	-per	8cc\	-per	.	.	.
.	.	16B-X/JJ	.	16b-X\JJ	.	.	.	.	.	.	.	.	.	.	.	.
=11	=11	=11	=11	=11	=11	=11	=11	=11	=11	=11	=11	=11	=11	=11	=11	=11
8F\L	3	16A/LL	.	16a\LL	.	4F\	Ce-	4c\	Ce-	4f\	Ce-	4a\	Ce-	.	1ryy	1ryy
.	.	16B/	.	16b\	.	.	.	.	.	.	.	.	.	.	.	.
8F\	.	16c/	.	16cc\	.	.	.	.	.	.	.	.	.	.	.	.
.	.	16A/JJ	.	16a\JJ	.	.	.	.	.	.	.	.	.	.	.	.
8F\	4 n2r	16Bn/LL	.	16bn\LL	.	4F\	-los	4d\	-los	4g\	-los	4b\	-los	.	.	.
.	.	16c/	.	16cc\	.	.	.	.	.	.	.	.	.	.	.	.
8F\J	.	16d/	.	16dd\	.	.	.	.	.	.	.	.	.	.	.	.
.	.	16B/JJ	.	16b\JJ	.	.	.	.	.	.	.	.	.	.	.	.
!	!	!	!	!	!	!	!	!	!	!	!	!LO:LB:g=original	!	!	!	!
!	!	!	!	!	!	!	!	!	!	!	!LO:MO:mod=glo-	!	!LO:MO:mod=glo-	!	!	!
8E\L	6	16c/LL	.	16cc\LL	.	4E\	glo-	4c\	glo-	4g\	Glo-	4cc\	Glo-	.	.	.
.	.	16G/	.	16g\	.	.	.	.	.	.	.	.	.	.	.	.
8E\	.	16e/	.	16ee\	.	.	.	.	.	.	.	.	.	.	.	.
.	.	16d/JJ	.	16dd\JJ	.	.	.	.	.	.	.	.	.	.	.	.
8E\	.	16c/LL	.	16cc\LL	.	8E\	-ri-	8c\	-ri-	8g\	-ri-	8cc\	-ri-	.	.	.
.	.	16B/	.	16b\	.	.	.	.	.	.	.	.	.	.	.	.
8E\J	.	16A/	.	16a\	.	8E\	-a	8c\	-a	8g\	-a	8cc\	-a	.	.	.
.	.	16G/JJ	.	16g\JJ	.	.	.	.	.	.	.	.	.	.	.	.
!	!	!	!	!	!	!LO:LB:g=original	!	!	!	!	!	!	!	!	!	!
=12	=12	=12	=12	=12	=12	=12	=12	=12	=12	=12	=12	=12	=12	=12	=12	=12
!LO:TX:t=P:problem=mixed beam	!	!	!	!	!	!	!	!	!	!	!	!	!	!	!	!
8E\L	6	8A/L	.	16a\LL	.	(4F\	e-	(4A/	e-	4f\	e-	4dd\	e-	.	1ryy	1ryy
.	.	.	.	16dd\	.	.	.	.	.	.	.	.	.	.	.	.
8F\	.	16a/L	.	16ff\	.	.	.	.	.	.	.	.	.	.	.	.
.	.	16f/JJ	.	16dd\JJ	.	.	.	.	.	.	.	.	.	.	.	.
8F\	4	16f/LL	.	16dd\LL	.	4G\)	.	4G/)	.	8e\L	.	8cc\L	.	.	.	.
.	3	16e/	.	16cc\	.	.	.	.	.	.	.	.	.	.	.	.
8GG/J	.	16e/	.	16cc\	.	.	.	.	.	8d\J	.	8b\J	.	.	.	.
.	.	16d/JJ	.	16b\JJ	.	.	.	.	.	.	.	.	.	.	.	.
*tremolo	*	*	*	*	*	*	*	*	*	*	*	*	*	*	*	*
8C/L	.	8e/L	.	8cc\L	.	8C'/	-jus	8G/	-jus	8e\	-jus	8cc\	-jus	.	.	.
!	!	!	!	!	!	!	!	!	!	!	!	!	!LO:MO:mod=quis	!	!	!
8C/	.	8e/	.	16ee\L	.	8c\	quis	8c\	quis	8g\	quis	8ee\	Si-	.	.	.
.	.	.	.	16gg\JJ	.	.	.	.	.	.	.	.	.	.	.	.
!	!	!	!	!LO:LB:g=original	!	!	!	!	!	!	!	!	!LO:MO:null:mod=si-	!	!	!
8C/	.	8e/	.	16ff\LL	.	8c\	si-	8c\	si-	8g\	si-	8ee\	.	.	.	.
.	.	.	.	16ee\	.	.	.	.	.	.	.	.	.	.	.	.
8C/J	.	8e/J	.	16dd\	.	8c\	-cut	8c\	-cut	8g\	-cut	8ee\	-cut	.	.	.
.	.	.	.	16cc\JJ	.	.	.	.	.	.	.	.	.	.	.	.
*Xtremolo	*	*	*	*	*	*	*	*	*	*	*	*	*	*	*	*
!	!	!	!	!	!	!	!	!	!	!LO:LB:g=original	!	!	!	!	!	!
=13	=13	=13	=13	=13	=13	=13	=13	=13	=13	=13	=13	=13	=13	=13	=13	=13
!LO:TX:t=P:problem=mixed beam	!	!	!	!	!	!	!	!	!	!	!	!	!	!	!	!
8G\L	3	8d/L	.	16cc\LL	.	8G\	Do-	8B\	Do-	8g\	Do-	8dd\	Do-	.	1ryy	1ryy
.	.	.	.	16b\J	.	.	.	.	.	.	.	.	.	.	.	.
8GG/	.	8d/	.	8b\J	.	16G\	-mi-	16B\	-mi-	16g\	-mi-	16dd\	-mi-	.	.	.
.	.	.	.	.	.	16G\	-nus	16B\	-nus	16g\	-nus	16dd\	-nus	.	.	.
!	!	!	!	!	!	!	!	!LO:LB:g=original	!	!	!	!	!	!	!	!
8G\	.	8d/	.	16b/LL	.	8G\	De-	8B\	De-	8g\	De-	8dd\	De-	.	.	.
.	.	.	.	16g/	.	.	.	.	.	.	.	.	.	.	.	.
8F\J	.	8d/J	.	16a/	.	8F\	-us	8B\	-us	8g\	-us	8dd\	-us	.	.	.
.	.	.	.	16b/JJ	.	.	.	.	.	.	.	.	.	.	.	.
!	!	!LO:LB:g=original	!	!	!	!	!	!	!	!	!	!	!	!	!	!
8E\L	6	8e/L	.	16cc\LL	.	8E\	no-	8c\	no-	8g\	no-	8ee\	no-	.	.	.
.	.	.	.	32b\L	.	.	.	.	.	.	.	.	.	.	.	.
.	.	.	.	32cc\JJJ	.	.	.	.	.	.	.	.	.	.	.	.
8C\	.	8e/	.	16ee\LL	.	8C\	-ster	8c\	-ster	8g\	-ster	8ee\	-ster	.	.	.
.	.	.	.	16cc\JJ	.	.	.	.	.	.	.	.	.	.	.	.
!	!	!	!	!	!	!	!	!	!	!	!	!LO:LB:g=original	!	!	!	!
8G\	3	8d/	.	16b/LL	.	8G\	qui	8B\	qui	8g\	qui	8dd\	qui	.	.	.
.	.	.	.	16g/	.	.	.	.	.	.	.	.	.	.	.	.
8F\J	.	8d/J	.	16a/	.	8F\	in	8B\	in	8g\	in	8dd\	in	.	.	.
.	.	.	.	16b/JJ	.	.	.	.	.	.	.	.	.	.	.	.
!	!	!	!	!	!	!LO:LB:g=original	!	!	!	!	!	!	!	!	!	!
=14	=14	=14	=14	=14	=14	=14	=14	=14	=14	=14	=14	=14	=14	=14	=14	=14
!	!	!LO:TX:t=P:problem=mixed beam	!	!	!	!	!	!	!	!	!	!	!	!	!	!
8E/L	6	8e/L	.	16cc\LL	.	8E\	al-	8c\	al-	8g\	al-	8ee\	al-	.	1ryy	1ryy
.	.	.	.	32b\L	.	.	.	.	.	.	.	.	.	.	.	.
.	.	.	.	32cc\JJJ	.	.	.	.	.	.	.	.	.	.	.	.
8C/	.	8cc\	.	16ee\LL	.	8C/	-tis	8c\	-tis	8g\	-tis	8ee\	-tis	.	.	.
.	.	.	.	16gg\JJ	.	.	.	.	.	.	.	.	.	.	.	.
8BB/	6 5	8dd\	.	16gg\LL	.	8BB/	ha-	8d\	ha-	8g\	ha-	8ff\	ha-	.	.	.
.	.	.	.	16ff\	.	.	.	.	.	.	.	.	.	.	.	.
8C/J	.	8cc\J	.	16ff\	.	8C/	-bi-	8c\	-bi-	8g\	-bi-	8ee\	-bi-	.	.	.
.	.	.	.	16ee\JJ	.	.	.	.	.	.	.	.	.	.	.	.
!LO:TX:t=P:problem=mixed beam	!	!	!	!	!	!	!	!	!	!	!	!	!	!	!	!
8G\L	.	16cc\LL	.	16ee\LL	.	4G\	-tat	4B\	-tat	4g\	-tat	4dd\	-tat	.	.	.
.	.	16b\J	.	16dd\J	.	.	.	.	.	.	.	.	.	.	.	.
8GG/	.	8a\J	.	8dd\J	.	.	.	.	.	.	.	.	.	.	.	.
8B\	6	8d/L	.	16gg\LL	.	8B\	et	8d\	et	8g\	et	8dd\	et	.	.	.
.	.	.	.	16aa\	.	.	.	.	.	.	.	.	.	.	.	.
8B\J	.	8d/J	.	16gg\	.	8B\	hu-	8d\	hu-	8g\	hu-	8dd\	hu-	.	.	.
.	.	.	.	16ff\JJ	.	.	.	.	.	.	.	.	.	.	.	.
!	!	!	!	!	!	!	!	!	!	!LO:LB:g=original	!	!	!	!	!	!
=15	=15	=15	=15	=15	=15	=15	=15	=15	=15	=15	=15	=15	=15	=15	=15	=15
*tremolo	*	*	*	*	*	*	*	*	*	*	*	*	*	*	*	*
8c\L	.	8c/L	.	16ff\LL	.	8.c\	-mi-	8.c\	-mi-	8.g\	-mi-	8.ee\	-mi-	.	1ryy	1ryy
.	.	.	.	16ee\J	.	.	.	.	.	.	.	.	.	.	.	.
8c\	.	8c/	.	8ee\J	.	.	.	.	.	.	.	.	.	.	.	.
.	.	.	.	.	.	16c\	-li-	16c\	-li-	16g\	-li-	16ee\	-li-	.	.	.
!	!	!	!	!LO:LB:g=original	!	!	!	!	!	!	!	!	!	!	!	!
8c\	.	8e/	.	16r	.	8c\	-a	8c\	-a	8g\	-a	8ee\	-a	.	.	.
.	.	.	.	32cc\LLL	.	.	.	.	.	.	.	.	.	.	.	.
.	.	.	.	32b\J	.	.	.	.	.	.	.	.	.	.	.	.
8c\J	.	8e/J	.	16cc\	.	8c\	res-	8c\	res-	8g\	res-	8ee\	res-	.	.	.
.	.	.	.	16dd\JJ	.	.	.	.	.	.	.	.	.	.	.	.
!	!	!	!	!	!	!	!	!LO:LB:g=original	!	!	!	!	!	!	!	!
8A\L	.	8c/L	.	16ff\LL	.	4A\	-pi-	4c\	-pi-	4a\	-pi-	4ee\	-pi-	.	.	.
.	.	.	.	16ee\J	.	.	.	.	.	.	.	.	.	.	.	.
8A\	.	8c/	.	8ee\J	.	.	.	.	.	.	.	.	.	.	.	.
8A\	.	8e/	.	16r	.	8A\	-cit	8c\	-cit	8a\	-cit	8ee\	-cit	.	.	.
.	.	.	.	32cc\LLL	.	.	.	.	.	.	.	.	.	.	.	.
.	.	.	.	32b\J	.	.	.	.	.	.	.	.	.	.	.	.
8A\J	.	8e/J	.	16cc\	.	8A\	in	8c\	in	8a\	in	8ee\	in	.	.	.
.	.	.	.	16ee\JJ	.	.	.	.	.	.	.	.	.	.	.	.
!LO:LB:g=original	!	!	!	!	!	!	!	!	!	!	!	!LO:LB:g=original	!	!	!	!
=16	=16	=16	=16	=16	=16	=16	=16	=16	=16	=16	=16	=16	=16	=16	=16	=16
!	!	!LO:TX:t=P:problem=mixed beam	!	!	!	!	!	!	!	!	!	!	!	!	!	!
8F\L	6 5	8c/L	.	16ee\LL	.	8F\	Ce-	8c\	Ce-	8a\	Ce-	8dd\	Ce-	.	1ryy	1ryy
.	.	.	.	16dd\J	.	.	.	.	.	.	.	.	.	.	.	.
8F\	.	8cc\	.	8dd\J	.	8F\	-lo	8c\	-lo	8a\	-lo	8dd\	-lo	.	.	.
!	!	!	!	!	!	!LO:LB:g=original	!	!	!	!	!	!	!	!	!	!
8F\	.	8cc\	.	16r	.	8F\	et	8c\	et	8a\	et	8dd\	et	.	.	.
.	.	.	.	32dd\LLL	.	.	.	.	.	.	.	.	.	.	.	.
.	.	.	.	32cc\J	.	.	.	.	.	.	.	.	.	.	.	.
8F\J	.	8cc\J	.	16dd\	.	8F\	in	8c\	in	8a\	in	8dd\	in	.	.	.
.	.	.	.	16ff\JJ	.	.	.	.	.	.	.	.	.	.	.	.
*Xtremolo	*	*	*	*	*	*2\right	*	*2\right	*	*2\right	*	*2\right	*	*	*	*
!LO:TX:t=P:problem=mixed beam	!	!	!	!	!	!	!	!	!	!	!	!	!	!	!	!
8G\L	3	8b\L	.	16ee\LL	.	2G\	ter-	2B\	ter-	2g\	te-	2dd\	te-	.	.	.
.	.	.	.	16dd\	.	.	.	.	.	.	.	.	.	.	.	.
8G\	.	8b\	.	16cc\	.	.	.	.	.	.	.	.	.	.	.	.
.	.	.	.	16dd\JJ	.	.	.	.	.	.	.	.	.	.	.	.
8GG/	.	8b\	.	16gg\LL	.	.	.	.	.	.	.	.	.	.	.	.
.	.	.	.	16ff\	.	.	.	.	.	.	.	.	.	.	.	.
8GG/J	.	8b\J	.	16ee\	.	.	.	.	.	.	.	.	.	.	.	.
.	.	.	.	16dd\JJ	.	.	.	.	.	.	.	.	.	.	.	.
=17	=17	=17	=17	=17	=17	=17	=17	=17	=17	=17	=17	=17	=17	=17	=17	=17
!LO:TX:a:i:t=Solo	!	!	!	!	!	!	!	!	!	!	!	!	!	!	!	!
4C/	.	8cc\	.	8cc\L	.	4C/	-ra	4c\	-ra	4g\	-ra	4ee\	-ra	.	1ryy	1ryy
.	.	8r	.	(32cc\LL	.	.	.	.	.	.	.	.	.	.	.	.
.	.	.	.	32b\	.	.	.	.	.	.	.	.	.	.	.	.
.	.	.	.	32cc\	.	.	.	.	.	.	.	.	.	.	.	.
.	.	.	.	32dd\JJJ)	.	.	.	.	.	.	.	.	.	.	.	.
8c\L	.	8g/L	.	16ee\LL	.	4r	.	4r	.	4r	.	4r	.	.	.	.
!	!	!	!LO:DY:t=p.	!	!	!	!	!	!	!	!	!	!	!	!	!
.	.	.	p	16gg\	.	.	.	.	.	.	.	.	.	.	.	.
8B\J	6	8g/J	.	16dd\	.	.	.	.	.	.	.	.	.	.	.	.
.	.	.	.	16gg\JJ	.	.	.	.	.	.	.	.	.	.	.	.
!LO:TX:t=P:problem=mixed beam	!	!	!	!	!	!	!	!	!	!	!	!	!	!	!	!
8A\L	.	(8.a/L	.	16cc\LL	.	2r	.	2r	.	2r	.	2r	.	.	.	.
.	.	.	.	16ee\	.	.	.	.	.	.	.	.	.	.	.	.
8F\	6	.	.	16ff\	.	.	.	.	.	.	.	.	.	.	.	.
.	.	16f/Jk)	.	16dd\JJ	.	.	.	.	.	.	.	.	.	.	.	.
!	!	!	!	!LO:LB:g=original	!	!	!	!	!	!	!	!	!	!	!	!
8G\	4	16f/LL	.	16dd\LL	.	.	.	.	.	.	.	.	.	.	.	.
.	.	16e/	.	16cc\	.	.	.	.	.	.	.	.	.	.	.	.
8GG/J	3	16e/	.	16cc\	.	.	.	.	.	.	.	.	.	.	.	.
.	.	16d/JJ	.	16b\JJ	.	.	.	.	.	.	.	.	.	.	.	.
!	!	!LO:LB:g=original	!	!	!	!	!	!	!	!	!	!	!	!	!	!
=18	=18	=18	=18	=18	=18	=18	=18	=18	=18	=18	=18	=18	=18	=18	=18	=18
!	!	!	!	!	!	!	!	!LO:MO:mod=!LO&colon;TX&colon;a&colon;i&colon;t=Solo	!	!	!	!	!	!	!	!
!	!	!	!	!	!LO:DY:a:rj:t=p.	!	!	!LO:TX:a:i:t=Solo:color=grey	!	!	!	!	!	!	!	!
4C/	.	8e/L|	.	4cc\	p	00r	.	8.c\	Su-	00r	.	00r	.	.	1ryy	1ryy
.	.	8g/|	.	.	.	.	.	.	.	.	.	.	.	.	.	.
.	.	.	.	.	.	.	.	16c\	-ſci-	.	.	.	.	.	.	.
4BB/	6 5	8f/|	.	4dd\	.	.	.	8d\	-tans	.	.	.	.	.	.	.
.	.	8g/J|	.	.	.	.	.	16c\LL	a	.	.	.	.	.	.	.
.	.	.	.	.	.	.	.	16d\JJ	.	.	.	.	.	.	.	.
!	!	!	!	!	!	!	!	!LO:LB:g=original	!	!	!	!	!	!	!	!
8C\L	.	8e/L|	.	8cc\L	.	.	.	8e\	-ter-	.	.	.	.	.	.	.
8A\	.	8c/|	.	16b\L	.	.	.	16d\LL	-ra	.	.	.	.	.	.	.
.	.	.	.	16cc\JJ	.	.	.	16e\JJ	.	.	.	.	.	.	.	.
!	!	!	!	!	!	!	!	!	!LO:MO:mod=i-	!	!	!	!	!	!	!
8F\	6	8f/|	.	8dd\L	.	.	.	16f\LL	jn-	.	.	.	.	.	.	.
.	.	.	.	.	.	.	.	16d\JJ	.	.	.	.	.	.	.	.
!	!	!	!	!	!	!	!	!	!LO:MO:mod=-no-	!	!	!	!	!	!	!
8G\J	.	8d/J|	.	8b\J	.	.	.	16c\LL	-o-	.	.	.	.	.	.	.
.	.	.	.	.	.	.	.	16B\JJ	.	.	.	.	.	.	.	.
=19	=19	=19	=19	=19	=19	=19	=19	=19	=19	=19	=19	=19	=19	=19	=19	=19
4C/	.	8e/L|	.	4cc\	.	.	.	8c\	-pem	.	.	.	.	.	1ryy	1ryy
.	.	8g/|	.	.	.	.	.	16c\	et	.	.	.	.	.	.	.
.	.	.	.	.	.	.	.	16c\	de	.	.	.	.	.	.	.
4BB/	6 5	8f/|	.	4dd\	.	.	.	8d\	Ster-	.	.	.	.	.	.	.
.	.	8g/J|	.	.	.	.	.	16c\	-cor-	.	.	.	.	.	.	.
.	.	.	.	.	.	.	.	16d\	-e	.	.	.	.	.	.	.
8C\L	.	8e/L|	.	8cc\L	.	.	.	8e\	e-	.	.	.	.	.	.	.
8A\	.	8c/|	.	16b\L	.	.	.	16d\	-ri-	.	.	.	.	.	.	.
.	.	.	.	16cc\JJ	.	.	.	16e\	-gens	.	.	.	.	.	.	.
8F\	6	8f/|	.	8dd\L	.	.	.	16f\LL	pau-	.	.	.	.	.	.	.
.	.	.	.	.	.	.	.	16d\JJ	.	.	.	.	.	.	.	.
8G\J	.	8d/J|	.	8b\J	.	.	.	16c\LL	-pe-	.	.	.	.	.	.	.
.	.	.	.	.	.	.	.	16B\JJ	.	.	.	.	.	.	.	.
!	!	!	!	!	!	!	!	!LO:LB:g=original	!	!	!	!	!	!	!	!
=20	=20	=20	=20	=20	=20	=20	=20	=20	=20	=20	=20	=20	=20	=20	=20	=20
!LO:TX:t=P:problem=mixed beam	!	!	!	!	!	!	!	!	!	!	!	!	!	!	!	!
!	!	!	!	!	!	!	!	!	!LO:MO:mod=-rem	!	!	!	!	!	!	!
8C/L	.	8e/L	.	8cc\	.	.	.	8c\	rum	.	.	.	.	.	1ryy	1ryy
8c\	.	(16e/L	.	8r	.	.	.	8r	.	.	.	.	.	.	.	.
.	.	16f/JJ)	.	.	.	.	.	.	.	.	.	.	.	.	.	.
8C/J	.	8g/	.	16ee\LL	.	.	.	16c\LL	ut	.	.	.	.	.	.	.
.	.	.	.	16dd\	.	.	.	16B\JJ	.	.	.	.	.	.	.	.
8r	.	8r	.	16ee\	.	.	.	16c\LL	col-	.	.	.	.	.	.	.
.	.	.	.	16ff\JJ	.	.	.	16d\JJ	.	.	.	.	.	.	.	.
8r	.	8r	.	8gg\L	.	.	.	8e\	-lo-	.	.	.	.	.	.	.
8C\L	.	8cc/L	.	16aa\L	.	.	.	16f\LL	-cet	.	.	.	.	.	.	.
.	.	.	.	16gg\JJ	.	.	.	16e\JJ	.	.	.	.	.	.	.	.
8F\	6	8a/	.	8ff\L	.	.	.	8d\L	e-	.	.	.	.	.	.	.
8F#X\J	5	8a/J	.	8ee\J	.	.	.	8c\J	.	.	.	.	.	.	.	.
!LO:LB:g=original	!	!	!	!	!	!	!	!	!	!	!	!	!	!	!	!
=21	=21	=21	=21	=21	=21	=21	=21	=21	=21	=21	=21	=21	=21	=21	=21	=21
8G\L	.	8g/L	.	4.dd\	.	.	.	8B\	um	.	.	.	.	.	1ryy	1ryy
8G\	.	8g/	.	.	.	.	.	8B\L	com	.	.	.	.	.	.	.
8F#X\	5 3	8a/	.	.	.	.	.	8c\J	.	.	.	.	.	.	.	.
8Fn\J	6 4	8b/J	.	8gg\	.	.	.	8d\	prin-	.	.	.	.	.	.	.
!	!	!	!	!LO:LB:g=original	!	!	!	!	!	!	!	!	!	!	!	!
8E\L	6	8cc\	.	8gg\L	.	.	.	8c\	-ci-	.	.	.	.	.	.	.
8D\	7	4g/	.	8ff\	.	.	.	16c\LL	-pi-	.	.	.	.	.	.	.
.	6	.	.	.	.	.	.	16B\JJ	.	.	.	.	.	.	.	.
8C\	.	.	.	8ee\	.	.	.	16c\LL	-bus	.	.	.	.	.	.	.
.	.	.	.	.	.	.	.	16d\JJ	.	.	.	.	.	.	.	.
!	!	!	!	!	!	!	!	!LO:LB:g=original	!	!	!	!	!	!	!	!
8E\J	6	8cc\	.	8gg\J	.	.	.	16e\LL	po-	.	.	.	.	.	.	.
.	.	.	.	.	.	.	.	16c\JJ	.	.	.	.	.	.	.	.
=22	=22	=22	=22	=22	=22	=22	=22	=22	=22	=22	=22	=22	=22	=22	=22	=22
8F\L	6	8a/L	.	8ff\L	.	1r	.	8d\	-pu-	1r	.	1r	.	.	1ryy	1ryy
8F\	.	8a/	.	8ff\J	.	.	.	8d\	-li	.	.	.	.	.	.	.
8G\	3	8g/	.	8dd\L	.	.	.	8B\L	Su-	.	.	.	.	.	.	.
8G\J	.	8f/J	.	16cc\L	.	.	.	16A\L	.	.	.	.	.	.	.	.
.	.	.	.	16dd\JJ	.	.	.	16B\JJ	.	.	.	.	.	.	.	.
!	!	!LO:LB:g=original	!	!	!	!	!	!	!	!	!	!	!	!	!	!
!	!	!LO:TX:t=P:problem=mixed beam	!	!	!	!	!	!	!	!	!	!	!	!	!	!
4C/	.	8e/L	.	16ee\LL	.	.	.	4c\	-i	.	.	.	.	.	.	.
.	.	.	.	16gg\	.	.	.	.	.	.	.	.	.	.	.	.
.	.	16ee\L	.	16ee\	.	.	.	.	.	.	.	.	.	.	.	.
.	.	16cc\JJ	.	16cc\JJ	.	.	.	.	.	.	.	.	.	.	.	.
4r	.	16g'/LL	.	16g/LL	.	.	.	4r	.	.	.	.	.	.	.	.
.	.	16cc/	.	16cc/	.	.	.	.	.	.	.	.	.	.	.	.
.	.	16e/	.	16e/	.	.	.	.	.	.	.	.	.	.	.	.
.	.	16g/JJ	.	16g/JJ	.	.	.	.	.	.	.	.	.	.	.	.
!	!	!	!	!	!	!	!	!	!	!LO:LB:g=original	!	!	!	!	!	!
=23	=23	=23	=23	=23	=23	=23	=23	=23	=23	=23	=23	=23	=23	=23	=23	=23
*tremolo	*	*	*	*	*	*	*	*	*	*	*	*	*	*	*	*
!LO:TX:a:i:rj:t=Tutti	!	!	!LO:DY:a:rj:t=f.	!LO:TX:t=P:problem=mixed beam	!LO:DY:a:rj:t=f.	!	!	!LO:TX:a:i:rj:t=Tutti	!	!	!	!	!	!	!	!
8c\L	.	8e/L	f	16c/LL	f	4c\	Quis	4c\	-Quis	4g\	Quis	4ee\	Quis	.	1ryy	1ryy
.	.	.	.	16cc\	.	.	.	.	.	.	.	.	.	.	.	.
8c\	.	8e/J	.	16ee\	.	.	.	.	.	.	.	.	.	.	.	.
.	.	.	.	16cc\JJ	.	.	.	.	.	.	.	.	.	.	.	.
8c\	.	16r	.	8gg\L	.	8c\	ha-	8c\	ha-	8g\	ha-	8ee\	ha-	.	.	.
.	.	16cc\LL	.	.	.	.	.	.	.	.	.	.	.	.	.	.
8c\J	.	16ee\	.	8gg\J	.	8c\	-bi-	8c\	-bi-	8g\	-bi-	8ee\	-bi-	.	.	.
.	.	16cc\JJ	.	.	.	.	.	.	.	.	.	.	.	.	.	.
8B\L	6\ 3	8g#X/L	.	16r	.	8B\	-ta-	8e\	-ta-	8g#X\	-ta-	8dd\	-ta-	.	.	.
.	.	.	.	16dd\LL	.	.	.	.	.	.	.	.	.	.	.	.
8B\	.	8g#/J	.	16ee\	.	8B\	-re	8e\	-re	8g#\	-re	8dd\	-re	.	.	.
.	.	.	.	16dd\JJ	.	.	.	.	.	.	.	.	.	.	.	.
8B\	.	16r	.	8gg#X\L	.	8B\	fa-	8e\	fa-	8g#\	fa-	8dd\	fa-	.	.	.
.	.	16dd\LL	.	.	.	.	.	.	.	.	.	.	.	.	.	.
8B\J	.	16ee\	.	8gg#\J	.	8B\	-cit	8e\	-cit	8g#\	-cit	8dd\	-cit	.	.	.
.	.	16dd\JJ	.	.	.	.	.	.	.	.	.	.	.	.	.	.
*Xtremolo	*	*	*	*	*	*	*	*	*	*	*	*	*	*	*	*
!	!	!	!	!	!	!LO:LB:g=original	!	!	!	!	!	!	!	!	!	!
=24	=24	=24	=24	=24	=24	=24	=24	=24	=24	=24	=24	=24	=24	=24	=24	=24
!	!	!	!	!	!	!	!LO:MO:mod=ste-	!	!LO:MO:mod=ste-	!	!	!	!	!	!	!
8A\L	.	8cc/L	.	16r	.	8A\	Ste-	8e\	Ste-	8a\	ste-	8cc\	ste-	.	1ryy	1ryy
.	.	.	.	16cc\LL	.	.	.	.	.	.	.	.	.	.	.	.
8A\	.	8a/	.	16ee\	.	8A\	-ri-	8e\	-ril-	8a\	-ri-	8cc\	-ri-	.	.	.
.	.	.	.	16cc\JJ	.	.	.	.	.	.	.	.	.	.	.	.
!	!	!	!	!	!	!	!	!LO:LB:g=original	!	!	!	!LO:LB:g=original	!	!	!	!
8G#X\	6 5	8b/	.	16ee\LL	.	8G#X\	-lem	8e\	-lem	8b\	-lem	8dd\	-lem	.	.	.
.	.	.	.	16dd\	.	.	.	.	.	.	.	.	.	.	.	.
8A\J	.	8a/J	.	16dd\	.	8A\	in	8e\	in	8a\	in	8cc\	in	.	.	.
.	.	.	.	16cc\JJ	.	.	.	.	.	.	.	.	.	.	.	.
!LO:TX:t=P:problem=mixed beam	!	!	!	!LO:LB:g=original	!	!	!	!	!	!	!	!	!	!	!	!
8E\L	#4r	8a/L	.	16cc\LL	.	8D\	Do-	8e\	Do-	8a\	Do-	8cc\	Do-	.	.	.
.	.	.	.	16b\	.	.	.	.	.	.	.	.	.	.	.	.
8EE/	.	8g#X/J	.	16cc\	.	8D\	-mo	8e\	-mo	8g#X\	-mo	8b\	-mo	.	.	.
.	.	.	.	16b\JJ	.	.	.	.	.	.	.	.	.	.	.	.
8E\	.	16g#\LL	.	16g#X\LL	.	8E\	Ma-	8e\	Ma-	8g#\	ma-	8ee\	Ma-	.	.	.
.	.	16b\	.	16b\	.	.	.	.	.	.	.	.	.	.	.	.
8G#\J	6 5	16ee\	.	16ee\	.	8G#X\	-trem	8e\	-trem	8b\	-trem	8dd\	-trem	.	.	.
.	.	16dd\JJ	.	16dd\JJ	.	.	.	.	.	.	.	.	.	.	.	.
=25	=25	=25	=25	=25	=25	=25	=25	=25	=25	=25	=25	=25	=25	=25	=25	=25
8A\L	6	16cc\LL	.	16cc\LL	.	8A\L	fi-	4e\	Fi-	4a\	fi-	4cc\	fi-	.	1ryy	1ryy
.	.	16ee\	.	16ee\	.	.	.	.	.	.	.	.	.	.	.	.
8c\	.	16cc\	.	16cc\	.	8c\J	.	.	.	.	.	.	.	.	.	.
.	.	16a\JJ	.	16a\JJ	.	.	.	.	.	.	.	.	.	.	.	.
8E\	#	16g#X\LL	.	16g#X\LL	.	8E\L	-li-	4e\	-li-	4b\	-li-	4dd\	-li-	.	.	.
.	.	16b\	.	16b\	.	.	.	.	.	.	.	.	.	.	.	.
8G#X\J	6 5	16ee\	.	16ee\	.	8G#X\J	.	.	.	.	.	.	.	.	.	.
.	.	16dd\JJ	.	16dd\JJ	.	.	.	.	.	.	.	.	.	.	.	.
!	!	!LO:LB:g=original	!	!	!	!	!	!	!	!LO:LB:g=original	!	!	!	!	!	!
8A\L	6	16cc\LL	.	16cc\LL	.	8A\L	-o-	2e\	-o-	4a\	-o-	4cc\	-o-	.	.	.
.	.	16ee\	.	16ee\	.	.	.	.	.	.	.	.	.	.	.	.
8c\	.	16cc\	.	16cc\	.	8c\	.	.	.	.	.	.	.	.	.	.
.	.	16a\JJ	.	16a\JJ	.	.	.	.	.	.	.	.	.	.	.	.
8E\	#	16g#\LL	.	16g#\LL	.	8E\	.	.	.	4b\	.	4dd\	.	.	.	.
.	.	16b\	.	16b\	.	.	.	.	.	.	.	.	.	.	.	.
8G#\J	6 5	16ee\	.	16ee\	.	8G#\J	.	.	.	.	.	.	.	.	.	.
.	.	16dd\JJ	.	16dd\JJ	.	.	.	.	.	.	.	.	.	.	.	.
=26	=26	=26	=26	=26	=26	=26	=26	=26	=26	=26	=26	=26	=26	=26	=26	=26
8A\L	.	16cc\LL	.	16cc\LL	.	8A\	-rum	8e\	-rum	8a\	-rum	8cc\	-rum	.	1ryy	1ryy
.	.	16ee\	.	16ee\	.	.	.	.	.	.	.	.	.	.	.	.
8C\	6	16cc\	.	16cc\	.	8C/	le-	8e\	le-	8a\	le-	8ee\	le-	.	.	.
.	.	16a\JJ	.	16a\JJ	.	.	.	.	.	.	.	.	.	.	.	.
8D\	6	16dd\LL	.	16dd\LL	.	8D\L	-tan-	8f\L	-tan-	8b\L	-tan-	8dd\L	-tan-	.	.	.
.	.	16b\	.	16b\	.	.	.	.	.	.	.	.	.	.	.	.
8E\J	#	16a\	.	16a\	.	8E\J	.	8e\J	.	8g#X\J	.	8b\J	.	.	.	.
.	.	16g#X\JJ	.	16g#X\JJ	.	.	.	.	.	.	.	.	.	.	.	.
!	!	!	!	!	!	!LO:LB:g=original	!	!	!	!	!	!	!	!	!	!
4AA/	.	8a/L	.	16a\LL	.	4AA/	-tem	4e\	-tem	4a\	-tem	4cc\	-tem	.	.	.
.	.	.	.	16cc\	.	.	.	.	.	.	.	.	.	.	.	.
.	.	16cc/L	.	16ee\	.	.	.	.	.	.	.	.	.	.	.	.
.	.	16a/JJ	.	16cc\JJ	.	.	.	.	.	.	.	.	.	.	.	.
8r	.	16cc/LL	.	16ee\LL	.	4r	.	4r	.	4r	.	4r	.	.	.	.
.	.	16b/	.	16dd\	.	.	.	.	.	.	.	.	.	.	.	.
!LO:TX:a:i:t=Solo	!	!	!	!	!	!	!	!	!	!	!	!	!	!	!	!
8E\	#	16a/	.	16cc\	.	.	.	.	.	.	.	.	.	.	.	.
.	.	16g#/JJ	.	16b\JJ	.	.	.	.	.	.	.	.	.	.	.	.
!	!	!	!	!LO:LB:g=original	!	!	!	!LO:LB:g=original	!	!	!	!LO:LB:g=original	!	!	!	!
=27	=27	=27	=27	=27	=27	=27	=27	=27	=27	=27	=27	=27	=27	=27	=27	=27
!	!	!LO:SIC:s=8g#L	!LO:DY:a:rj:t=p.	!	!LO:DY:a:rj:t=p.	!	!	!	!	!	!	!LO:TX:a:i:t=Solo	!	!	!	!
8A\L	.	8g/L	p	8.cc\L	p	0r	.	0r	.	0r	.	8.cc\L	Glo-	.	1ryy	1ryy
8A\J	.	8a/J	.	.	.	.	.	.	.	.	.	.	.	.	.	.
.	.	.	.	(32dd\LL	.	.	.	.	.	.	.	32dd\LL	.	.	.	.
.	.	.	.	32ee\JJJ)	.	.	.	.	.	.	.	32ee\JJJ	.	.	.	.
8r	.	8r	.	(16dd\LL	.	.	.	.	.	.	.	16dd\LL	-ri-	.	.	.
.	.	.	.	16cc\)	.	.	.	.	.	.	.	16cc\JJ	.	.	.	.
8c\	6	8e/	.	(16b\	.	.	.	.	.	.	.	16b\LL	-a	.	.	.
.	.	.	.	16a\JJ)	.	.	.	.	.	.	.	16a\JJ	.	.	.	.
8d\L	#4r 2	4e/	.	8g#X/L	.	.	.	.	.	.	.	8g#X\	Pa-	.	.	.
8c\	6	.	.	8a/J	.	.	.	.	.	.	.	16a\	-tri	.	.	.
.	.	.	.	.	.	.	.	.	.	.	.	16a\	et	.	.	.
8B\	6	8g#X/L	.	8b\L	.	.	.	.	.	.	.	8b\	fi-	.	.	.
8A\J	.	8a/J	.	8cc\J	.	.	.	.	.	.	.	8cc\	-li-	.	.	.
=28	=28	=28	=28	=28	=28	=28	=28	=28	=28	=28	=28	=28	=28	=28	=28	=28
!	!	!	!	!	!	!	!	!	!	!	!	!LO:MO:mod=!null:null	!	!	!	!
!	!	!	!	!	!	!	!	!	!	!	!	!LO:N:vis=8.	!	!	!	!
2G#X\	6 5	2a/	.	8.dd\L	.	.	.	.	.	.	.	8dd\	-o	.	1ryy	1ryy
.	.	.	.	.	.	.	.	.	.	.	.	16cc\LL	et	.	.	.
.	.	.	.	32cc\LL	.	.	.	.	.	.	.	16dd\JJ	.	.	.	.
.	.	.	.	32dd\JJJ	.	.	.	.	.	.	.	.	.	.	.	.
.	.	.	.	16ee\LL	.	.	.	.	.	.	.	16ee\LL	Spi-	.	.	.
.	.	.	.	16ff\	.	.	.	.	.	.	.	16ff\JJ	.	.	.	.
.	.	.	.	16ee\	.	.	.	.	.	.	.	16ee\LL	-ri-	.	.	.
.	.	.	.	16dd\JJ	.	.	.	.	.	.	.	16dd\JJ	.	.	.	.
!LO:TX:t=P:problem=mixed beam	!	!	!	!	!	!	!	!	!	!	!	!	!	!	!	!
8A\L	.	8a/L	.	16cc\LL	.	.	.	.	.	.	.	16cc\LL	-tu-	.	.	.
.	.	.	.	16ee\	.	.	.	.	.	.	.	16ee\JJ	.	.	.	.
!	!	!	!	!	!	!	!	!	!	!	!	!LO:LB:g=original	!	!	!	!
8D\	6	16f/L	.	16dd\	.	.	.	.	.	.	.	16dd\LL	-i	.	.	.
.	.	16d/JJ	.	16b\JJ	.	.	.	.	.	.	.	16b\JJ	.	.	.	.
8E\	4	8c/L	.	8a/L	.	.	.	.	.	.	.	8a\L	Sanc-	.	.	.
8EE/J	#	8B/J	.	8g#X/J	.	.	.	.	.	.	.	8g#X\J	.	.	.	.
!	!	!LO:LB:g=original	!	!	!	!	!	!	!	!	!	!	!	!	!	!
=29	=29	=29	=29	=29	=29	=29	=29	=29	=29	=29	=29	=29	=29	=29	=29	=29
!	!	!	!LO:MO:null:mod=!LO&colon;DY&colon;ed=brack	!	!	!	!	!	!	!	!	!	!	!	!	!
!LO:TX:a:i:t=Tutti	!	!	!	!	!LO:DY:a:rj:t=f.	!	!	!	!	!	!	!	!	!	!	!
!LO:TX:t=P:problem=mixed beam	!	!	!LO:MO:null:mod=f	!	!	!	!	!	!	!	!	!	!	!	!	!
8AA/L	.	8c/L	.	8a\L	f	8A\	-Si-	8c\	-Si-	8a\	-Si-	8a\	-to	.	1ryy	1ryy
!	!	!	!	!	!	!	!	!	!	!	!	!LO:MO:null:mod=!LO&colon;TX&colon;a&colon;i&colon;t=Tutti	!	!	!	!
!	!	!	!	!	!	!	!	!	!	!	!	!	!	!LO:DY:a:rj:t=for	!	!
8A\	.	8e/	.	32cc\LL	.	8A\	-cut	8c\	-cut	8a\	-cut	16ee\	Si-	f	.	.
.	.	.	.	32b\	.	.	.	.	.	.	.	.	.	.	.	.
.	.	.	.	32cc\	.	.	.	.	.	.	.	16ee\	-cut	.	.	.
.	.	.	.	32dd\JJJ	.	.	.	.	.	.	.	.	.	.	.	.
8c\	6	8a/	.	16ee\LL	.	8c\	e-	8e\	e-	8a\	-e-	8ee\	e-	.	.	.
.	.	.	.	16ff\	.	.	.	.	.	.	.	.	.	.	.	.
8c\J	.	8a/J	.	16gg#X\	.	8c\	-rat	8e\	-rat	8a\	-rat	8ee\	-rat	.	.	.
.	.	.	.	16aa\JJ	.	.	.	.	.	.	.	.	.	.	.	.
*	*	*tremolo	*	*	*	*	*	*	*	*	*	*	*	*	*	*
8d\L	.	8a/L	.	8.ff\L	.	8d\	in	8d\	in	8a\	in	8ff\	in	.	.	.
8d\	.	8a/	.	.	.	8d\	prin-	8d\	prin-	8a\	prin-	8ff\	prin-	.	.	.
.	.	.	.	(32ee\LL	.	.	.	.	.	.	.	.	.	.	.	.
.	.	.	.	32ff\JJJ)	.	.	.	.	.	.	.	.	.	.	.	.
!	!	!	!	!LO:LB:g=original	!	!	!	!	!	!	!	!	!	!	!	!
8c\	6	8a/	.	16ee\LL	.	8c\	-ci-	8e\	-ci-	8a\	-ci-	8ee\	-ci-	.	.	.
.	.	.	.	16ff\	.	.	.	.	.	.	.	.	.	.	.	.
8c\J	.	8a/J	.	16gg#\	.	8c\	-pi-	8e\	-pi-	8a\	-pi-	8ee\	-pi-	.	.	.
.	.	.	.	16aa\JJ	.	.	.	.	.	.	.	.	.	.	.	.
*	*	*Xtremolo	*	*	*	*	*	*	*	*	*	*	*	*	*	*
!LO:LB:g=original	!	!	!	!	!	!	!	!	!	!LO:LB:g=original	!	!	!	!	!	!
=30	=30	=30	=30	=30	=30	=30	=30	=30	=30	=30	=30	=30	=30	=30	=30	=30
8B\L	6\ 3	8dd\L	.	16aa\LL	.	8B\	-o	8e\	-o	8g#X\	-o	8dd\	-o	.	1ryy	1ryy
.	.	.	.	16gg#X\	.	.	.	.	.	.	.	.	.	.	.	.
8B\	.	8dd\	.	16bb\	.	8B\	et	8e\	et	8g#\	et	8dd\	et	.	.	.
.	.	.	.	16gg#\JJ	.	.	.	.	.	.	.	.	.	.	.	.
8G#X\	6 5	8b\	.	16ee\LL	.	8G#X\	nunc	8e\	nunc	8b\	nunc	8dd\	nunc	.	.	.
.	.	.	.	16ff\	.	.	.	.	.	.	.	.	.	.	.	.
8G#\J	.	8b\J	.	16ee\	.	8G#\	et	8e\	et	8b\	et	8dd\	et	.	.	.
.	.	.	.	16dd\JJ	.	.	.	.	.	.	.	.	.	.	.	.
*	*	*tremolo	*	*	*	*	*	*	*	*	*	*	*	*	*	*
!LO:TX:t=P:problem=mixed beam	!	!	!	!	!	!	!	!	!	!	!	!	!	!	!	!
8A\L	.	8a/L	.	16dd\LL	.	8A\	Sem-	8e\	Sem-	8a\	Sem-	8cc\	Sem-	.	.	.
.	.	.	.	16cc\	.	.	.	.	.	.	.	.	.	.	.	.
8AA/	.	8a/	.	16cc\	.	8A\	-per	8e\	-per	8a\	-per	8cc\	-per	.	.	.
.	.	.	.	16ee\JJ	.	.	.	.	.	.	.	.	.	.	.	.
!	!	!	!	!	!	!LO:LB:g=original	!	!	!	!	!	!LO:LB:g=original	!	!	!	!
8c\	6	8a/	.	16aa\LL	.	8c\	et	8e\	et	8a\	et	8ee\	et	.	.	.
.	.	.	.	16gg#\	.	.	.	.	.	.	.	.	.	.	.	.
8c\J	.	8a/J	.	16ff\	.	8c\	in	8e\	in	8a\	in	8ee\	in	.	.	.
.	.	.	.	16ee\JJ	.	.	.	.	.	.	.	.	.	.	.	.
!	!	!	!	!	!	!	!	!LO:LB:g=original	!	!	!	!	!	!	!	!
=31	=31	=31	=31	=31	=31	=31	=31	=31	=31	=31	=31	=31	=31	=31	=31	=31
*tremolo	*	*	*	*	*	*	*	*	*	*	*	*	*	*	*	*
8d\L	.	8a/L	.	16gg\LL	.	8d\	Se-	8d\	Se-	8a\	Se-	8ff\	Se-	.	1ryy	1ryy
.	.	.	.	16ff\J	.	.	.	.	.	.	.	.	.	.	.	.
8d\	.	8a/	.	8ff\J	.	16d\	-cu-	16d\	-cu-	16a\	-cu-	16ff\	-cu-	.	.	.
.	.	.	.	.	.	16d\	-la	16d\	-la	16a\	-la	16ff\	-la	.	.	.
8d\	.	8a/	.	16ff\LL	.	8d\	Se-	8d\	Se-	8a\	Se-	8ff\	Se-	.	.	.
.	.	.	.	16gg#X\	.	.	.	.	.	.	.	.	.	.	.	.
8d\J	.	8a/J	.	16aa\	.	8d\	-cu-	8d\	-cu-	8a\	-cu-	8ff\	-cu-	.	.	.
.	.	.	.	16ff\JJ	.	.	.	.	.	.	.	.	.	.	.	.
*Xtremolo	*	*Xtremolo	*	*	*	*	*	*	*	*	*	*	*	*	*	*
!LO:TX:t=P:problem=mixed beam	!	!	!	!	!	!	!	!	!	!	!	!	!	!	!	!
8c\L	6	8a/L	.	16ee\LL	.	8c\	-lo-	8e\	-lo-	8a\	-lo-	8ee\	-lo-	.	.	.
.	.	.	.	16aa\	.	.	.	.	.	.	.	.	.	.	.	.
8d\	6	8b/	.	16ff\	.	8d\	-rum	8f\	-rum	8b\	-rum	8dd\	-rum	.	.	.
.	.	.	.	16dd\JJ	.	.	.	.	.	.	.	.	.	.	.	.
8e\	4	8a/	.	8cc\L	.	8e\L	a-	4e\	a-	8a\L	a-	8cc\L	a-	.	.	.
8E/J	#	8g#X/J	.	8b\J	.	8E\J	.	.	.	8g#X\J	.	8b\J	.	.	.	.
!	!	!	!	!	!	!	!	!	!	!LO:LB:g=original	!	!	!	!	!	!
=32	=32	=32	=32	=32	=32	=32	=32	=32	=32	=32	=32	=32	=32	=32	=32	=32
8A\L	.	8a/L	.	16cc\LL	.	8A\	-men	8e\	-men	8a\	-men	4cc\	-men	.	1ryy	1ryy
.	.	.	.	16ee\	.	.	.	.	.	.	.	.	.	.	.	.
8F\	.	16cc/L	.	16aa\	.	8F\	a-	4f\	a-	4a\	a-	.	.	.	.	.
.	.	16a/JJ	.	16cc\JJ	.	.	.	.	.	.	.	.	.	.	.	.
8D\	6 5	16b\LL	.	16b\LL	.	8D\L	.	.	.	.	.	4b\	a-	.	.	.
.	.	16aa\	.	16aa\	.	.	.	.	.	.	.	.	.	.	.	.
8E\J	#	16b\	.	16b\	.	8E\J	.	8e\	.	8g#X\	.	.	.	.	.	.
.	.	16gg#X\JJ	.	16gg#X\JJ	.	.	.	.	.	.	.	.	.	.	.	.
4AA/	.	4aa\	.	4aa\	.	4AA/	-men	4e\	-men	4a\	-men	4cc\	-men	.	.	.
4r	.	4r	.	4r	.	4r	.	4r	.	4r	.	4r	.	.	.	.
==	==	==	==	==	==	==	==	==	==	==	==	==	==	==	==	==
*-	*-	*-	*-	*-	*-	*-	*-	*-	*-	*-	*-	*-	*-	*-	*-	*-
!!!system-decoration: [(g1)][(g2)][(g3)]s9
!!!RDF**kern: < = below
!!!RDF**kern: | = vertical stroke
!!!filter-modern: sic -sq | tie -s | humtr -p | autostem -r | shed -k -e "s/([^a-gA-Gn#X-])[<>]/$1/g" | shed -e "s/LO:DY:t=/LO:dy:t=/L" | shed -e "s/LO:DY:(a|b|rj)/LO:dy:$1/L" | shed -e "s/TX(.*):t=P:/tx$1:t=P:/LG" | shed -e "s/^(\d+[\/\\]right)/$1yy/I; s/^(\d+[\/\\]left)/$1yy/I" | modori -m
!!!ENC: Marta Opryszak
!!!END: 2021-11-30
!!!ENC: Marta Lawrence
!!!END: 2021-12-12
!!!ENC-modern: Leszek Kubiak
!!!END-modern: 2022-07-28
!!!YEC: Copyright 2022 Narodowy Instytut Fryderyka Chopina (https://polishscores.org)
!!!YEM: Licence CC BY 4.0 (https://creativecommons.org/licenses/by/4.0)
